X: 269
T: Kevi Csardas
O: Hungary
M: 2/4
L: 1/8
K: Am
%%MIDI gchord ff
%%MIDI program 40
%%MIDI bassprog 45
"Am"A,2 B,2|C2 D2|EA3|E4|
|:"Am"ABcc|B2A2|E2DF-|F2E2|
  ABcc|B2A2|E2DF-|F2E2|
  EF^GA|BcB^G|A2B^G|A4:|



